packages/foundations/assets/icons/functional/images/transportation/bus_28.svg

<svg width="28" height="28" viewBox="0 0 28 28" fill="none" xmlns="http://www.w3.org/2000/svg">
<g clip-path="url(#clip0_187_866)">
<path fill-rule="evenodd" clip-rule="evenodd" d="M8.38322 1.75066H19.6171C20.6649 1.76564 21.2317 1.8885 21.8199 2.20309C22.4002 2.51342 22.8608 2.97404 23.1712 3.55431C23.4857 4.14254 23.6086 4.70938 23.6236 5.75711L23.6252 20.5057C23.6252 21.349 23.5384 21.7983 23.288 22.2665C23.1482 22.5278 22.9675 22.7575 22.7514 22.95L22.7502 24.2524C22.7502 24.7401 22.7502 26.2609 20.7535 26.2493C20.2968 26.2464 19.8779 26.2464 19.4969 26.2493C17.516 26.2493 17.516 24.8135 17.5029 24.4265L17.5 23.6241H10.5L10.5002 24.2524C10.5002 24.7401 10.5 26.2493 8.50348 26.2493C8.10529 26.2493 7.68642 26.2493 7.24687 26.2493C5.2496 26.2493 5.25017 24.8502 5.25017 24.2524C5.25017 23.9354 5.24998 23.5015 5.2496 22.9506C5.03319 22.758 4.85227 22.5281 4.71233 22.2665C4.4828 21.8373 4.39077 21.424 4.37703 20.7085L4.37517 5.98917C4.37517 4.79025 4.49214 4.18455 4.8292 3.55431C5.13953 2.97404 5.60015 2.51342 6.18042 2.20309C6.76865 1.8885 7.33549 1.76564 8.38322 1.75066ZM7.00571 23.6241L7.00054 24.4991H8.75017V23.6241H7.00571ZM21.0019 23.6241H19.2518V24.4991H21.0019V23.6241ZM21.8752 20.5057C21.8753 20.1767 21.8754 19.2002 21.8754 17.5761C19.0595 18.0207 16.8168 18.1553 14.0002 18.1553C11.3753 18.1553 8.75055 17.9622 6.12635 17.5761C6.13011 19.5239 6.12972 20.5681 6.12517 20.7085C6.11836 20.9192 6.12219 21.321 6.37237 21.5971C6.62255 21.8732 6.9657 21.8732 7.65103 21.8732C8.33636 21.8732 20.3082 21.8732 20.655 21.8732C21.0019 21.8732 21.4 21.8636 21.6378 21.5971C21.8756 21.3306 21.875 20.9991 21.8752 20.5057ZM8.96892 18.8116C9.5734 18.8116 10.0627 19.3016 10.0627 19.9053C10.0627 20.5098 9.5734 20.9991 8.96892 20.9991C8.36518 20.9991 7.87517 20.5098 7.87517 19.9053C7.87517 19.3016 8.36518 18.8116 8.96892 18.8116ZM19.0314 18.8116C19.6359 18.8116 20.1252 19.3016 20.1252 19.9053C20.1252 20.5098 19.6359 20.9991 19.0314 20.9991C18.4277 20.9991 17.9377 20.5098 17.9377 19.9053C17.9377 19.3016 18.4277 18.8116 19.0314 18.8116ZM8.24975 3.50316C7.58528 3.51985 7.29891 3.58946 7.00571 3.74626C6.73042 3.89349 6.5196 4.10431 6.37237 4.3796C6.21557 4.6728 6.14596 4.95917 6.12927 5.62364V15.8064C8.61527 16.2156 11.578 16.4053 14.0002 16.4053C16.6249 16.4053 19.2499 16.2057 21.8754 15.8064L21.8658 5.46518C21.8422 4.9114 21.7717 4.64837 21.628 4.3796C21.4807 4.10431 21.2699 3.89349 20.9946 3.74626C20.7014 3.58946 20.4151 3.51985 19.7506 3.50316H8.24975ZM25.375 6.13745C25.8237 6.13745 26.25 6.52295 26.25 7.01245V10.5125C26.25 10.9957 25.8582 11.3875 25.375 11.3875C24.9263 11.3875 24.5 11.0173 24.5 10.5125V7.01245C24.5 6.5292 24.8918 6.13745 25.375 6.13745ZM2.625 6.13745C3.07373 6.13745 3.5 6.49671 3.5 6.99907V10.5125C3.5 10.9957 3.10825 11.3875 2.625 11.3875C2.17627 11.3875 1.75 11.0161 1.75 10.5125V7.01245C1.75 6.5292 2.14175 6.13745 2.625 6.13745ZM18.3752 5.24907C18.8584 5.24907 19.2502 5.64082 19.2502 6.12407C19.2502 6.5728 18.89 6.99907 18.3752 6.99907H9.62517C9.14193 6.99907 8.75017 6.60732 8.75017 6.12407C8.75017 5.67533 9.12148 5.24907 9.62517 5.24907H18.3752Z" fill="#1A1C1F"/>
</g>
<defs>
<clipPath id="clip0_187_866">
<rect width="28" height="28" fill="white"/>
</clipPath>
</defs>
</svg>

<svg xmlns="http://www.w3.org/2000/svg" width="28" height="28" fill="none"><g clip-path="url(#a)"><path fill="#1A1C1F" fill-rule="evenodd" d="M8.383 1.75h11.234c1.048.016 1.615.139 2.203.453.58.31 1.04.771 1.351 1.351.315.589.438 1.155.453 2.203l.001 14.749c0 .843-.087 1.292-.337 1.76q-.21.395-.537.684v1.302c0 .488 0 2.009-1.998 1.997a91 91 0 0 0-1.256 0c-1.981 0-1.981-1.435-1.994-1.822l-.003-.803h-7v.628c0 .488 0 1.997-1.997 1.997H7.247c-1.997 0-1.997-1.399-1.997-1.997v-1.301a2.5 2.5 0 0 1-.538-.684c-.23-.43-.321-.843-.335-1.558l-.002-14.72c0-1.199.117-1.804.454-2.435a3.26 3.26 0 0 1 1.351-1.35c.589-.316 1.155-.438 2.203-.453M7.006 23.625 7 24.5h1.75v-.875zm13.996 0h-1.75v.875h1.75zm.873-3.118v-2.93c-2.815.445-5.058.58-7.875.58q-3.938 0-7.874-.58.006 2.922 0 3.133c-.008.21-.004.612.246.888s.594.276 1.279.276h13.004c.347 0 .745-.01.983-.276s.237-.598.237-1.091M8.97 18.812a1.094 1.094 0 1 1 0 2.187 1.094 1.094 0 0 1 0-2.187m10.062 0a1.094 1.094 0 1 1 0 2.187 1.094 1.094 0 0 1 0-2.187M8.25 3.503c-.665.017-.951.086-1.244.243a1.5 1.5 0 0 0-.634.634c-.156.293-.226.58-.243 1.244v10.182c2.486.41 5.449.6 7.871.6q3.938 0 7.875-.6l-.01-10.34c-.023-.555-.093-.818-.237-1.086a1.5 1.5 0 0 0-.633-.634c-.294-.157-.58-.226-1.244-.243zm17.125 2.634c.449 0 .875.386.875.875v3.5a.875.875 0 0 1-.875.875.883.883 0 0 1-.875-.875v-3.5c0-.483.392-.875.875-.875m-22.75 0c.449 0 .875.36.875.862v3.513a.875.875 0 0 1-.875.875.884.884 0 0 1-.875-.875v-3.5c0-.483.392-.875.875-.875m15.75-.888a.875.875 0 0 1 0 1.75h-8.75a.875.875 0 0 1-.875-.875c0-.449.371-.875.875-.875z" clip-rule="evenodd"/></g><defs><clipPath id="a"><path fill="#fff" d="M0 0h28v28H0z"/></clipPath></defs></svg>
